dist/images/icons/icon-star.svg

<svg width="16" height="17" viewBox="0 0 16 17" fill="none" xmlns="http://www.w3.org/2000/svg">
<g clip-path="url(#clip0_16021_147)">
<path d="M-0.237422 6.1941C-0.18246 6.02438 -0.0362382 5.9007 0.139802 5.87507L5.08522 5.15429L7.29693 0.659718C7.37564 0.499718 7.53812 0.398438 7.716 0.398438C7.89391 0.398438 8.05637 0.499718 8.1351 0.659718L10.3469 5.15429L15.2922 5.87507C15.4682 5.9007 15.6145 6.02438 15.6695 6.19407C15.7245 6.36379 15.6786 6.55007 15.5512 6.6746L11.9728 10.1731L12.8175 15.1132C12.8475 15.2891 12.7755 15.4668 12.6315 15.5717C12.5501 15.631 12.4537 15.6612 12.3568 15.6612C12.2824 15.6612 12.2077 15.6434 12.1394 15.6073L7.71603 13.2749L3.29288 15.6073C3.13538 15.6903 2.9446 15.6765 2.80068 15.5717C2.65677 15.4668 2.58464 15.289 2.61471 15.1132L3.4596 10.1731L-0.119179 6.67457C-0.246551 6.55007 -0.292446 6.36379 -0.237422 6.1941Z" fill="black"/>
</g>
<defs>
<clipPath id="clip0_16021_147">
<rect width="16" height="16" fill="white" transform="matrix(-1 0 0 1 16 0.0297852)"/>
</clipPath>
</defs>
</svg>

<svg width="16" height="17" fill="none" xmlns="http://www.w3.org/2000/svg"><g clip-path="url(#clip0_16021_147)"><path d="M-.237 6.194a.468.468 0 01.377-.319l4.945-.72L7.297.66a.467.467 0 01.838 0l2.212 4.494 4.945.721a.468.468 0 01.26.8l-3.58 3.498.846 4.94a.47.47 0 01-.679.494l-4.423-2.332-4.423 2.332a.466.466 0 01-.678-.494l.845-4.94-3.58-3.498a.47.47 0 01-.117-.48z" fill="#000"/></g><defs><clipPath id="clip0_16021_147"><path fill="#fff" transform="matrix(-1 0 0 1 16 .03)" d="M0 0h16v16H0z"/></clipPath></defs></svg>
